!!!COM:	la Rue, Pierre de
!!!CDT:	~1452///-1518/11/20
!!!OPR:	Missa Ave sanctissima Maria
!!!ONM:	4
!!!OTL:	Sanctus
!!!AGN:	Mass; Sanctus
!!!SCT:	Rue1005d
!!!SCA:	Rue1005d
!!!voices:	6
!!!voices-OPR:	6(-5)
**kern	**kern	**kern	**kern	**kern	**kern
*staff6	*staff5	*staff4	*staff3	*staff2	*staff1
*Ivox	*Ivox	*Ivox	*Ivox	*Ivox	*Ivox
*I"Bassus2	*I"Bassus1	*I"Contra2	*I"Contra1	*I"Discantus2	*I"Discantus1
*I'B2	*I'B1	*I'C2	*I'C1	*I'D2	*I'D1
*>[A,B,C,D,C]	*>[A,B,C,D,C]	*>[A,B,C,D,C]	*>[A,B,C,D,C]	*>[A,B,C,D,C]	*>[A,B,C,D,C]
*>A	*>A	*>A	*>A	*>A	*>A
*clefF4	*clefF4	*clefGv2	*clefGv2	*clefG2	*clefG2
*k[]	*k[]	*k[]	*k[]	*k[]	*k[]
*M2/1	*M2/1	*M2/1	*M2/1	*M2/1	*M2/1
*met(C2)	*met(C2)	*met(C2)	*met(C2)	*met(C2)	*met(C2)
=1-	=1-	=1-	=1-	=1-	=1-
!	!	!	!	!	!LO:TX:X=-40:Z=8:t=6-ex-3 canon at the upper fourth (B2-->B1, C2-->C1, D2-->D1)
!!section: Sanctus
!!!OMD: Sanctus
0G	0r	1r	0r	[0g	0r
.	.	[1G	.	.	.
=2.	=2.	=2.	=2.	=2.	=2.
1E	0r	1G]	0r	0g]	0r
1C	.	1E	.	.	.
=3	=3	=3	=3	=3	=3
1G	0r	1C	0r	1e	0r
2G\	.	[1G	.	1c	.
[2E\	.	.	.	.	.
=4.	=4.	=4.	=4.	=4.	=4.
2E\]	0r	1G]	0r	1g	0r
4D\	.	.	.	.	.
4C/	.	.	.	.	.
2BB/	.	1G	.	2g/	.
4C/	.	.	.	[2g/	.
4BB/	.	.	.	.	.
=5	=5	=5	=5	=5	=5
1C	0r	1E	0r	2g/]	0r
.	.	.	.	1e	.
1C	.	[1G	.	.	.
.	.	.	.	4d/	.
.	.	.	.	4c/	.
=6.	=6.	=6.	=6.	=6.	=6.
0GG	0r	2G/]	0r	2B/	0r
.	.	2F/	.	2.c/	.
.	.	2E/	.	.	.
.	.	.	.	4B/	.
.	.	2D/	.	2B/	.
=7	=7	=7	=7	=7	=7
0r	0r	0C	0r	1c	0r
.	.	.	.	1e	.
=8.	=8.	=8.	=8.	=8.	=8.
[0GG	0r	2r	0r	1d	0r
.	.	2D/	.	.	.
.	.	2E/	.	1G	.
.	.	[2G/	.	.	.
=9	=9	=9	=9	=9	=9
0GG]	0r	2G/]	0r	2r	0r
.	.	2F/	.	2d/	.
.	.	2E/	.	2e/	.
.	.	2D/	.	[2g/	.
=10.	=10.	=10.	=10.	=10.	=10.
0C	0r	1C	0r	2g/]	0r
.	.	.	.	2f/	.
.	.	1G	.	2e/	.
.	.	.	.	2d/	.
=11	=11	=11	=11	=11	=11
1AA	0r	0A	0r	1c	0r
1FF	.	.	.	[1f	.
=12.	=12.	=12.	=12.	=12.	=12.
0C	0c	0G	1r	2f/]	[0cc
.	.	.	.	4e/	.
.	.	.	.	4d/	.
.	.	.	[1c	1e	.
=13	=13	=13	=13	=13	=13
[0FF	1A	0F	1c]	0f	0cc]
.	1F	.	1A	.	.
=14.	=14.	=14.	=14.	=14.	=14.
0FF]	1c	1.F	1F	0f	1a
.	2c\	.	[1c	.	1f
.	[2A\	4E/	.	.	.
.	.	4D/	.	.	.
=15	=15	=15	=15	=15	=15
0AA	2A\]	0C	1c]	1e	1cc
.	4G\	.	.	.	.
.	4F\	.	.	.	.
.	2E\	.	1c	1a	2cc\
.	4F\	.	.	.	[2cc\
.	4E\	.	.	.	.
=16.	=16.	=16.	=16.	=16.	=16.
0FF	1F	1C	1A	2a/	2cc\]
.	.	.	.	1f	1a
.	1F	[1C	[1c	.	.
.	.	.	.	4e/	4g/
.	.	.	.	4d/	4f/
=17	=17	=17	=17	=17	=17
0AA	0C	2C/]	2c\]	4e/	2e/
.	.	.	.	4d/	.
.	.	2D/	2B\	4c/	2.f/
.	.	.	.	4B/	.
.	.	1E	2A/	1c	.
.	.	.	.	.	4e/
.	.	.	2G/	.	2e/
=18.	=18.	=18.	=18.	=18.	=18.
0D	0r	1D	0F	0d	1f
.	.	1D	.	.	1a
=19	=19	=19	=19	=19	=19
0r	[0C	[0E	2r	0r	1g
.	.	.	2G/	.	.
.	.	.	2A/	.	1c
.	.	.	[2c\	.	.
=20.	=20.	=20.	=20.	=20.	=20.
0r	0C]	0E]	2c\]	0r	2r
.	.	.	2B\	.	2g/
.	.	.	2A/	.	2a/
.	.	.	2G/	.	[2cc\
=21	=21	=21	=21	=21	=21
0r	0F	0r	1F	0r	2cc\]
.	.	.	.	.	2b\
.	.	.	1c	.	2a/
.	.	.	.	.	2g/
=22.	=22.	=22.	=22.	=22.	=22.
0r	1D	0r	0d	1r	1f
.	1BB-i	.	.	[1f	[1b-i
=23	=23	=23	=23	=23	=23
0r	0F	0r	0c	1f]	2b-\]
.	.	.	.	.	4a/
.	.	.	.	.	4g/
.	.	.	.	1f	1a
=24.	=24.	=24.	=24.	=24.	=24.
0r	[0BB-	0r	0B-i	2.d/	0b-i
.	.	.	.	4e/	.
.	.	.	.	2f/	.
.	.	.	.	[2g/	.
=25	=25	=25	=25	=25	=25
0r	0BB-]	0r	1.B-i	2g/]	0b-i
.	.	.	.	2f/	.
.	.	.	.	2d/	.
.	.	.	4A/	2e/	.
.	.	.	4G/	.	.
=26.	=26.	=26.	=26.	=26.	=26.
0r	0D	0r	0F	2.f/	1a
.	.	.	.	4g/	.
.	.	.	.	1a	1dd
=27	=27	=27	=27	=27	=27
0r	0BB-i	0r	1F	[0d	2dd\
.	.	.	.	.	1b-i
.	.	.	[1F	.	.
.	.	.	.	.	4a/
.	.	.	.	.	4g/
=28.	=28.	=28.	=28.	=28.	=28.
0r	0D	0r	2F/]	0d]	4a/
.	.	.	.	.	4g/
.	.	.	2G/	.	4f#i/
.	.	.	.	.	4e/
.	.	.	1A	.	1f#i
=29	=29	=29	=29	=29	=29
0GG	0G	1r	1G	1r	0g
.	.	1G	1G	1e	.
=30.	=30.	=30.	=30.	=30.	=30.
1D	0r	1.F	[0A	1f	0r
2D\	.	.	.	[1f	.
[2D\	.	4E/	.	.	.
.	.	4D/	.	.	.
=31	=31	=31	=31	=31	=31
2D\]	0r	2.F/	0A]	2f/]	0r
4C/	.	.	.	4e/	.
4BB/	.	4G/	.	4d/	.
1AA	.	4A/	.	2c/	.
.	.	4B-i\	.	.	.
.	.	[2A/	.	[2e/	.
=32.	=32.	=32.	=32.	=32.	=32.
2C/	0r	2A/]	0r	4e/]	0r
.	.	.	.	4f/	.
2BB/	.	1G	.	2g/	.
1AA	.	.	.	1a	.
.	.	2F#i/	.	.	.
=33	=33	=33	=33	=33	=33
[0GG	0r	[0G	0r	1d	1r
.	.	.	.	[1g	[1b
=34.	=34.	=34.	=34.	=34.	=34.
0GG]	0r	0G]	0r	1g]	1b]
.	.	.	.	1g	1b
=35	=35	=35	=35	=35	=35
0r	0r	0r	0r	2.e/	2.g/
.	.	.	.	4f/	4a/
.	.	.	.	2g/	2b\
.	.	.	.	[2a/	[2cc\
=36.	=36.	=36.	=36.	=36.	=36.
0r	0r	0r	0r	2a/]	2cc\]
.	.	.	.	2.g/	2b\
.	.	.	.	.	2g/
.	.	.	.	4e/	.
.	.	.	.	2f/	2a/
=37	=37	=37	=37	=37	=37
0GG	0r	1G	0r	1g	2.b\
.	.	.	.	.	4cc\
.	.	1G	.	1d	1dd
=38.	=38.	=38.	=38.	=38.	=38.
1GG	0r	2D/	0r	2r	[0g
.	.	2.G/	.	2d/	.
[1C	.	.	.	2e/	.
.	.	4F/	.	.	.
.	.	4E/	.	[2c/	.
.	.	4D/	.	.	.
=39	=39	=39	=39	=39	=39
1C]	0r	2C/	0r	4c/]	0g]
.	.	.	.	4d/	.
.	.	2.G/	.	2.e/	.
1GG	.	.	.	.	.
.	.	4F/	.	4f/	.
.	.	4E/	.	[2g/	.
.	.	4D/	.	.	.
=40.	=40.	=40.	=40.	=40.	=40.
2.C/	0C	1E	1r	4g/]	1r
.	.	.	.	4f/	.
.	.	.	.	4e/	.
4BB/	.	.	.	4d/	.
1AA	.	1E	1c	1c	1a
=41	=41	=41	=41	=41	=41
0GG	1G	1r	1.B-i	[0d	1b-i
.	2G\	1D	.	.	[1b-i
.	[2G\	.	4A/	.	.
.	.	.	4G/	.	.
=42.	=42.	=42.	=42.	=42.	=42.
0r	2G\]	2.G/	2.B-i\	2d/]	2b-\]
.	4F\	.	.	2r	4a/
.	4E\	4A/	4c\	.	4g/
.	1D	2B-i\	4d\	1r	2f/
.	.	.	4e-i\	.	.
.	.	[2A/	[2d\	.	[2a/
=43	=43	=43	=43	=43	=43
0r	2F\	2A/]	2d\]	1r	4a/]
.	.	.	.	.	4b-i\
.	2E\	1G	1c	.	2cc\
.	1D	.	.	1d	1dd
.	.	2F/	2B\	.	.
=44.	=44.	=44.	=44.	=44.	=44.
2r	[0C	1G	[0c	2.e/	1g
1C	.	.	.	.	.
.	.	.	.	4f/	.
.	.	2E/	.	2g/	[1cc
[2FF/	.	2F/	.	[2a/	.
=45	=45	=45	=45	=45	=45
4FF/]	0C]	1A	0c]	4a/]	1cc]
4GG/	.	.	.	4g/	.
4AA/	.	.	.	1f	.
4BB/	.	.	.	.	.
1C	.	1G	.	.	1cc
.	.	.	.	2e/	.
=46.	=46.	=46.	=46.	=46.	=46.
2.FF/	0r	0F	0r	1f	2.a/
4GG/	.	.	.	.	4b\
2AA/	.	.	.	2c/	2cc\
2BB/	.	.	.	2f/	[2dd\
=47	=47	=47	=47	=47	=47
1C	0r	1r	0r	2.e/	2dd\]
.	.	.	.	.	2.cc\
.	.	.	.	4c/	.
1GG	.	[1G	.	1d	.
.	.	.	.	.	4a/
.	.	.	.	.	2b\
=48.	=48.	=48.	=48.	=48.	=48.
2r	0C	1G]	1c	1e	1cc
2.C/	.	.	.	.	.
.	.	1G	1c	2e/	1g
4D\	.	.	.	.	.
4E\	.	.	.	[2c/	.
4F\	.	.	.	.	.
=49	=49	=49	=49	=49	=49
2G\	1C	1E	2G/	4c/]	2r
.	.	.	.	4d/	.
2E\	.	.	2.c\	2e/	2g/
2.F\	[1F	[1A	.	2c/	2a/
.	.	.	4B\	.	.
.	.	.	4A/	[2f/	[2f/
4E\	.	.	4G/	.	.
=50.	=50.	=50.	=50.	=50.	=50.
2D\	1F]	1A]	2F/	2f/]	4f/]
.	.	.	.	.	4g/
2C/	.	.	2.c\	4e/	2.a/
.	.	.	.	4d/	.
1AA	1C	1c	.	1e	.
.	.	.	4B\	.	4b\
.	.	.	4A/	.	[2cc\
.	.	.	4G/	.	.
=51	=51	=51	=51	=51	=51
0D	2.F\	0d	1A	1r	4cc\]
.	.	.	.	.	4b\
.	.	.	.	.	4a/
.	4E\	.	.	.	4g/
.	[1Dl	.	1A	[1d	1f#i
=52.	=52.	=52.	=52.	=52.	=52.
0GG	0D_	[0Bl	1r	1d]	[0gl
.	.	.	[1Gl	1G	.
=53	=53	=53	=53	=53	=53
[0GGl	0D_	0B_	0G_	0d	0g_
=54.	=54.	=54.	=54.	=54.	=54.
0GG]	0D]	0B]	0G]	0dl	0g]
!!LO:LB:i:g=z
=55||	=55||	=55||	=55||	=55||	=55||
*>B	*>B	*>B	*>B	*>B	*>B
*clefF4	*clefF4	*clefGv2	*clefGv2	*clefG2	*clefG2
*k[]	*k[]	*k[]	*k[]	*k[]	*k[]
*M2/1	*M2/1	*M2/1	*M2/1	*M2/1	*M2/1
*met(C)	*met(C)	*met(C)	*met(C)	*met(C)	*met(C)
!!section: Pleni sunt celi
!!!OMD: Pleni sunt celi
!LO:TX:X=-40:Z=16:t=Canon at the upper fourth (1 breve)	!	!	!	!	!
2.G\	0r	0r	0r	0r	0r
4F\	.	.	.	.	.
2G\	.	.	.	.	.
2A\	.	.	.	.	.
=56	=56	=56	=56	=56	=56
2A\	2.c\	0r	0r	0r	0r
4G\	.	.	.	.	.
4F\	4B\	.	.	.	.
2E\	2c\	.	.	.	.
[2D\	2d\	.	.	.	.
=57	=57	=57	=57	=57	=57
2D\]	2d\	0r	0r	0r	0r
2G\	4c\	.	.	.	.
.	4B\	.	.	.	.
2F\	2A\	.	.	.	.
4E\	[2G\	.	.	.	.
4D\	.	.	.	.	.
=58	=58	=58	=58	=58	=58
1E	2G\]	0r	0r	0r	0r
.	2c\	.	.	.	.
2D\	2B\	.	.	.	.
2G\	4A\	.	.	.	.
.	4G\	.	.	.	.
=59	=59	=59	=59	=59	=59
2F\	1A	0r	0r	0r	0r
4E\	.	.	.	.	.
4D\	.	.	.	.	.
1E	2G\	.	.	.	.
.	2c\	.	.	.	.
=60	=60	=60	=60	=60	=60
2D\	2B\	0r	0r	0r	0r
1G	4A\	.	.	.	.
.	4G\	.	.	.	.
.	1A	.	.	.	.
2F\	.	.	.	.	.
=61	=61	=61	=61	=61	=61
2E\	2G\	0r	0r	0r	0r
1A	1c	.	.	.	.
2G\	2B\	.	.	.	.
=62	=62	=62	=62	=62	=62
2A\	2A\	0r	0r	0r	0r
2F\	1d	.	.	.	.
1E	.	.	.	.	.
.	2c\	.	.	.	.
=63	=63	=63	=63	=63	=63
0D	2d\	0r	0r	0r	0r
.	2B\	.	.	.	.
.	1A	.	.	.	.
=64	=64	=64	=64	=64	=64
1r	0G	0r	0r	0r	0r
[1G	.	.	.	.	.
=65	=65	=65	=65	=65	=65
2G\]	1r	0r	0r	0r	0r
1.E	.	.	.	.	.
.	[1c	.	.	.	.
=66	=66	=66	=66	=66	=66
1.C	2c\]	0r	0r	0r	0r
.	1.A	.	.	.	.
[2AA/	.	.	.	.	.
=67	=67	=67	=67	=67	=67
1AA]	1.F	0r	0r	0r	0r
[1A	.	.	.	.	.
.	[2D\	.	.	.	.
=68	=68	=68	=68	=68	=68
2A\]	1D]	0r	0r	0r	0r
1.F	.	.	.	.	.
.	[1d	.	.	.	.
=69	=69	=69	=69	=69	=69
0D	2d\]	0r	0r	0r	0r
.	1.B-	.	.	.	.
=70	=70	=70	=70	=70	=70
2r	0G	0r	0r	0r	0r
1G	.	.	.	.	.
4F\	.	.	.	.	.
4E\	.	.	.	.	.
=71	=71	=71	=71	=71	=71
2D\	2r	0r	0r	0r	0r
1E	1c	.	.	.	.
2D\	4B\	.	.	.	.
.	4A\	.	.	.	.
=72	=72	=72	=72	=72	=72
2E\	2G\	0r	0r	0r	0r
2C/	1A	.	.	.	.
1BB	.	.	.	.	.
.	2G\	.	.	.	.
=73	=73	=73	=73	=73	=73
0AA	2A\	0r	0r	0r	0r
.	2F\	.	.	.	.
.	1E	.	.	.	.
=74	=74	=74	=74	=74	=74
1r	0D	0r	0r	0r	0r
1A	.	.	.	.	.
=75	=75	=75	=75	=75	=75
1A	1r	0r	0r	0r	0r
1D	1d	.	.	.	.
=76	=76	=76	=76	=76	=76
0G	1d	0r	0r	0r	0r
.	1G	.	.	.	.
=77	=77	=77	=77	=77	=77
3.C/V	0c	0r	0r	0r	0r
6D\	.	.	.	.	.
3E\Z	.	.	.	.	.
3F\V	.	.	.	.	.
3E\	.	.	.	.	.
3F\Z	.	.	.	.	.
=78	=78	=78	=78	=78	=78
3.D\V	3.F\V	0r	0r	0r	0r
6E\	6G\	.	.	.	.
3F\Z	3A\Z	.	.	.	.
3G\V	3B-i\V	.	.	.	.
3F\	3A\	.	.	.	.
3G\Z	3B-i\Z	.	.	.	.
=79	=79	=79	=79	=79	=79
3.E\V	3.G\V	0r	0r	0r	0r
6F\	6A\	.	.	.	.
3G\Z	3B-i\Z	.	.	.	.
3A\V	3c\V	.	.	.	.
3G\	3B-i\	.	.	.	.
3A\Z	3c\Z	.	.	.	.
=80	=80	=80	=80	=80	=80
1F	3.A\V	0r	0r	0r	0r
.	6B-i\	.	.	.	.
.	3c\Z	.	.	.	.
1D	3d\V	.	.	.	.
.	3c\	.	.	.	.
.	3d\Z	.	.	.	.
=81	=81	=81	=81	=81	=81
2r	1B-i	0r	0r	0r	0r
2.G\	.	.	.	.	.
.	1G	.	.	.	.
4F\	.	.	.	.	.
4E\	.	.	.	.	.
4D\	.	.	.	.	.
=82	=82	=82	=82	=82	=82
1C	2r	0r	0r	0r	0r
.	2.c\	.	.	.	.
3C/V	.	.	.	.	.
.	4B-i\	.	.	.	.
3D\	.	.	.	.	.
.	4A\	.	.	.	.
3E\Z	.	.	.	.	.
.	4G\	.	.	.	.
=83	=83	=83	=83	=83	=83
2AA/	1F	0r	0r	0r	0r
1D	.	.	.	.	.
.	3F\V	.	.	.	.
.	3G\	.	.	.	.
2C/	.	.	.	.	.
.	3A\Z	.	.	.	.
=84	=84	=84	=84	=84	=84
2D\	2D\	0r	0r	0r	0r
2GG/	1G	.	.	.	.
1AA	.	.	.	.	.
.	2F#i\	.	.	.	.
=85	=85	=85	=85	=85	=85
0GGl	0Gl	0r	0r	0r	0r
!!LO:LB:i:g=z
=86||	=86||	=86||	=86||	=86||	=86||
*>C	*>C	*>C	*>C	*>C	*>C
*clefF4	*clefF4	*clefGv2	*clefGv2	*clefG2	*clefG2
*k[]	*k[]	*k[]	*k[]	*k[]	*k[]
*M3/1	*M3/1	*M3/1	*M3/1	*M3/1	*M3/1
*met(3)	*met(3)	*met(3)	*met(3)	*met(3)	*met(3)
!!section: Osanna
!!!OMD: Osanna
!	!	!	!	!	!LO:TX:X=-40:Z=8:t=6-ex-3 canon at the upper fourth (B2-->B1, C2-->C1, D2-->D1)
1.GG	0.r	0G	0.r	0g	0.r
2AA/	.	.	.	.	.
1BB	.	1G	.	1g	.
=87	=87	=87	=87	=87	=87
1C	0.r	1A	0.r	1.e	0.r
2BB/	.	0B	.	.	.
2AA/	.	.	.	2f/	.
1BB	.	.	.	1g	.
=88	=88	=88	=88	=88	=88
0AA	1.C	0c	0c	1c	0cc
.	.	.	.	1.e	.
.	2D\	.	.	.	.
[1AA	1E	[1A	1c	.	1cc
.	.	.	.	2A/	.
=89	=89	=89	=89	=89	=89
1AA]	1F	0.A]	1d	0d	1.a
0AA	2E\	.	0e	.	.
.	2D\	.	.	.	2b\
.	1E	.	.	1c	1cc
=90	=90	=90	=90	=90	=90
0.r	0D	0.A	0f	0d	1f
.	.	.	.	.	1.a
.	[1D	.	[1d	1d	.
.	.	.	.	.	2d/
=91	=91	=91	=91	=91	=91
0.r	1D]	0.r	0.d]	1B	0g
.	0D	.	.	0A	.
.	.	.	.	.	1f#i
=92	=92	=92	=92	=92	=92
1.GG	0.r	0G	0.d	0.G	0g
2AA/	.	.	.	.	.
1BB	.	[1G	.	.	1g
=93	=93	=93	=93	=93	=93
1C	0.r	1G]	0.r	0.r	1e
2BB/	.	0G	.	.	0d
2AA/	.	.	.	.	.
1BB	.	.	.	.	.
=94	=94	=94	=94	=94	=94
0AA	1.C	[0.A	0c	0.r	0.c
.	2D\	.	.	.	.
[1AA	1E	.	[1c	.	.
=95	=95	=95	=95	=95	=95
1AA]	1F	0A]	1c]	1r	0.r
0AA	2E\	.	0c	1r	.
.	2D\	.	.	.	.
.	1E	1A	.	1e	.
=96	=96	=96	=96	=96	=96
0.r	0D	1.F	[0.d	0f	0.r
.	.	2G/	.	.	.
.	[1D	1A	.	[1f	.
=97	=97	=97	=97	=97	=97
0.r	1D]	1B-	0d]	1f]	1r
.	0D	2A/	.	0f	1r
.	.	2G/	.	.	.
.	.	1A	1d	.	1a
=98	=98	=98	=98	=98	=98
0GG	0.r	0G	1.B-i	0g	0b-i
.	.	.	2c\	.	.
[1GG	.	[1G	1d	[1g	[1b-
=99	=99	=99	=99	=99	=99
1GG]	0.r	1G]	1e-	1g]	1b-]
0GG	.	0G	2d\	0g	0b-i
.	.	.	2c\	.	.
.	.	.	1d	.	.
=100	=100	=100	=100	=100	=100
0C	0C	1C	0c	0e	0cc
.	.	1.A	.	.	.
[1AA	[1C	.	[1c	[1a	[1cc
.	.	2G/	.	.	.
=101	=101	=101	=101	=101	=101
1AA]	1C]	1F	1c]	1a]	1cc]
0AA	0C	0E	0c	0a	0cc
=102	=102	=102	=102	=102	=102
0D	0F	1.D	1F	1f	0a
.	.	.	1.d	1.a	.
.	.	2E/	.	.	.
1BB	[1D	1F	.	.	[1dd
.	.	.	2c\	2g/	.
=103	=103	=103	=103	=103	=103
1GG	1D]	1G	1B	1.g	1dd]
0D	0D	0A	0A	.	0dd
.	.	.	.	2f#i/	.
.	.	.	.	1f#i	.
=104	=104	=104	=104	=104	=104
0.GG	0G	0.r	1.G	0.g	1b
.	.	.	.	.	1.dd
.	.	.	2A/	.	.
.	1E	.	1B	.	.
.	.	.	.	.	2cc\
=105	=105	=105	=105	=105	=105
0.r	1C	0.r	1c	1r	1.cc
.	0G	.	0d	1r	.
.	.	.	.	.	2b\
.	.	.	.	1d	1b
=106	=106	=106	=106	=106	=106
1.C	0.C	0G	0.r	0e	0.cc
2D\	.	.	.	.	.
2E\	.	1E	.	1e	.
2C/	.	.	.	.	.
=107	=107	=107	=107	=107	=107
1D	0.r	1.A	0.r	1.f	1r
0BB	.	.	.	.	1r
.	.	4G/	.	2e/	.
.	.	4F/	.	.	.
.	.	1G	.	1d	1g
=108	=108	=108	=108	=108	=108
0.AA	1.F	0.C	0c	0.c	0a
.	2G\	.	.	.	.
.	2A\	.	1A	.	1a
.	2F\	.	.	.	.
=109	=109	=109	=109	=109	=109
0.r	1G	0.r	1.d	0.r	1.b-i
.	0E	.	.	.	.
.	.	.	4c\	.	2a/
.	.	.	4B\	.	.
.	.	.	1c	.	1g
=110	=110	=110	=110	=110	=110
1.D	0.D	1.F	0.F	0a	0.f
2E\	.	2G/	.	.	.
2F\	.	2A/	.	1f	.
2D\	.	2B-i\	.	.	.
=111	=111	=111	=111	=111	=111
1E	0.r	1G	0.r	1.g	0.r
0C	.	1.E	.	.	.
.	.	.	.	2f/	.
.	.	.	.	1e	.
.	.	2F/	.	.	.
=112	=112	=112	=112	=112	=112
0.GG	1.G	0.G	1.B	0.d	0dd
.	2A\	.	2c\	.	.
.	2B\	.	2d\	.	1b
.	2G\	.	2e\	.	.
=113	=113	=113	=113	=113	=113
0.r	1A	0.r	1c	0.r	1.cc
.	0F	.	1.A	.	.
.	.	.	.	.	2b\
.	.	.	.	.	1a
.	.	.	2B\	.	.
=114	=114	=114	=114	=114	=114
0G	0.C	0E	0.c	1g	0.g
.	.	.	.	1g	.
1C	.	1E	.	1e	.
=115	=115	=115	=115	=115	=115
1D	0.r	1D	0.r	1.f	0.r
0BB	.	1F	.	.	.
.	.	.	.	2e/	.
.	.	1G	.	1d	.
=116	=116	=116	=116	=116	=116
0.AA	0c	0C	0A	1c	1cc
.	.	.	.	1.e	1cc
.	1F	1C	1A	.	1a
.	.	.	.	2d/	.
=117	=117	=117	=117	=117	=117
0.r	1G	1D	1G	1.d	1.b-i
.	0E	0E	1B	.	.
.	.	.	.	2c/	2a/
.	.	.	1c	1c	1g
=118	=118	=118	=118	=118	=118
0D	[0.Dl	1F	0F	[0.dl	1f
.	.	1D	.	.	1.a
1BB	.	1d	1F	.	.
.	.	.	.	.	2g/
=119	=119	=119	=119	=119	=119
1GG	0.D_	1B	1G	0.d_	1.g
0D	.	0A	0A	.	.
.	.	.	.	.	2f#i/
.	.	.	.	.	1f#i
=120	=120	=120	=120	=120	=120
0.GGl	0.D]	0.Gl	0.Bl	0.d]	0.gl
!!LO:LB:i:g=z
!!LO:TX:rj:i:t=fine
=121||	=121||	=121||	=121||	=121||	=121||
*>D	*>D	*>D	*>D	*>D	*>D
*clefF4	*clefF4	*clefGv2	*clefGv2	*clefG2	*clefG2
*k[]	*k[]	*k[]	*k[]	*k[]	*k[]
*M2/1	*M2/1	*M2/1	*M2/1	*M2/1	*M2/1
*met(C2)	*met(C2)	*met(C2)	*met(C2)	*met(C2)	*met(C2)
!	!	!	!	!	!LO:TX:X=-40:Z=8:t=4-ex-2 canon at the upper fourth (B2-->B1, D2-->D1)
!!section: Benedictus
!!!OMD: Benedictus
1G	0r	0r	0r	0r	0r
2E\	.	.	.	.	.
2F\	.	.	.	.	.
=122.	=122.	=122.	=122.	=122.	=122.
1G	1r	0r	0r	0r	0r
2.A\	1c	.	.	.	.
4G\	.	.	.	.	.
=123	=123	=123	=123	=123	=123
2F\	2A\	0r	0r	0r	0r
4E\	2B\	.	.	.	.
4D\	.	.	.	.	.
1E	1c	.	.	.	.
=124.	=124.	=124.	=124.	=124.	=124.
0D	2.d\	0r	0r	1f	0r
.	4c\	.	.	.	.
.	2B\	.	.	2d/	.
.	4A\	.	.	2e/	.
.	4G\	.	.	.	.
=125	=125	=125	=125	=125	=125
0r	1A	0r	0r	1f	1r
.	[1G	.	.	2.g/	1b
.	.	.	.	4f/	.
=126.	=126.	=126.	=126.	=126.	=126.
0r	1G]	0r	0r	2e/	2g/
.	.	.	.	4d/	2a/
.	.	.	.	4c/	.
.	1r	.	.	1d	1b
=127	=127	=127	=127	=127	=127
2r	0r	0r	0r	2c/	2.cc\
1C	.	.	.	1e	.
.	.	.	.	.	4b\
.	.	.	.	.	2a/
2D\	.	.	.	[2d/	4g/
.	.	.	.	.	4f/
=128.	=128.	=128.	=128.	=128.	=128.
1E	1r	0r	0r	2d/]	1g
.	.	.	.	2c#i/	.
[1D	2r	.	.	[1d	2f/
.	[2F\	.	.	.	[2a/
=129	=129	=129	=129	=129	=129
1D]	2F\]	0r	0r	1d]	2a/]
.	2G\	.	.	.	1g
1D	1A	.	.	1r	.
.	.	.	.	.	2f#i/
=130.	=130.	=130.	=130.	=130.	=130.
2E\	0G	0r	0r	0r	0g
2.E\	.	.	.	.	.
4D\	.	.	.	.	.
2C/	.	.	.	.	.
=131	=131	=131	=131	=131	=131
1BB	1G	0r	0r	0r	0r
2.AA/	2A\	.	.	.	.
.	[2A\	.	.	.	.
4BB/	.	.	.	.	.
=132.	=132.	=132.	=132.	=132.	=132.
2C/	4A\]	0r	0r	0r	0r
.	4G\	.	.	.	.
1D	2F\	.	.	.	.
.	1E	.	.	.	.
2C/	.	.	.	.	.
=133	=133	=133	=133	=133	=133
2.F\	2.D\	0r	0r	0r	0r
4E\	4E\	.	.	.	.
2D\	2F\	.	.	.	.
4C/	[2G\	.	.	.	.
4BB/	.	.	.	.	.
=134.	=134.	=134.	=134.	=134.	=134.
1AA	2G\]	0r	0r	1r	0r
.	2F\	.	.	.	.
[1GG	2.B-i\	.	.	[1d	.
.	4A\	.	.	.	.
=135	=135	=135	=135	=135	=135
1GG]	2G\	0r	0r	1d]	0r
.	4F\	.	.	.	.
.	4E\	.	.	.	.
1r	1D	.	.	1d	.
=136.	=136.	=136.	=136.	=136.	=136.
0r	0C	0r	0r	2e/	0g
.	.	.	.	2.e/	.
.	.	.	.	4d/	.
.	.	.	.	2c/	.
=137	=137	=137	=137	=137	=137
0r	0r	0r	0r	1B	1g
.	.	.	.	2.A/	2a/
.	.	.	.	.	[2a/
.	.	.	.	4B/	.
=138.	=138.	=138.	=138.	=138.	=138.
0r	0r	0r	0r	2c/	4a/]
.	.	.	.	.	4g/
.	.	.	.	1d	2f/
.	.	.	.	.	1e
.	.	.	.	2c/	.
=139	=139	=139	=139	=139	=139
0r	0r	0r	0r	2.f/	2.d/
.	.	.	.	4e/	4e/
.	.	.	.	2d/	2f/
.	.	.	.	4c/	[2g/
.	.	.	.	4B/	.
=140.	=140.	=140.	=140.	=140.	=140.
1r	0r	0r	0r	1A	2g/]
.	.	.	.	.	2f/
2.GG/	.	.	.	1G	2.b-i\
4AA/	.	.	.	.	4a/
=141	=141	=141	=141	=141	=141
2BB/	0r	0r	0r	0r	2g/
1C	.	.	.	.	4f/
.	.	.	.	.	4e/
.	.	.	.	.	1d
2BB/	.	.	.	.	.
=142.	=142.	=142.	=142.	=142.	=142.
4C/	2.C/	0r	0r	0r	1c
4D\	.	.	.	.	.
4E\	.	.	.	.	.
4F\	4D\	.	.	.	.
2E\	2E\	.	.	.	1r
[2D\	[2F\	.	.	.	.
=143	=143	=143	=143	=143	=143
2D\]	2F\]	0r	0r	1r	0r
2C/	2E\	.	.	.	.
[1D	4F\	.	.	1d	.
.	4G\	.	.	.	.
.	4A\	.	.	.	.
.	4B-i\	.	.	.	.
=144.	=144.	=144.	=144.	=144.	=144.
2D\]	2A\	0r	0r	2.f/	0r
4C/	1G	.	.	.	.
4BB/	.	.	.	4g/	.
1AA	.	.	.	2a/	.
.	2F#i\	.	.	2a/	.
=145	=145	=145	=145	=145	=145
0GG	1.G	0r	0r	1.d	1g
.	.	.	.	.	2.b\
.	4F\	.	.	2e/	.
.	4E\	.	.	.	4cc\
=146.	=146.	=146.	=146.	=146.	=146.
0r	1D	0r	0r	1f	2dd\
.	.	.	.	.	2dd\
.	[1C	.	.	2g/	[1g
.	.	.	.	[2e/	.
=147	=147	=147	=147	=147	=147
0r	1C]	0r	0r	2e/]	2g/]
.	.	.	.	4d/	2a/
.	.	.	.	4c/	.
.	1r	.	.	2d/	1b
.	.	.	.	2e/	.
=148.	=148.	=148.	=148.	=148.	=148.
0r	0r	0r	0r	1A	2cc\
.	.	.	.	.	1a
.	.	.	.	2r	.
.	.	.	.	2A/	4g/
.	.	.	.	.	4f/
=149	=149	=149	=149	=149	=149
1r	0r	0r	0r	2B/	2g/
.	.	.	.	2c/	2a/
2r	.	.	.	1d	1d
[2D\	.	.	.	.	.
=150.	=150.	=150.	=150.	=150.	=150.
2D\]	0r	0r	0r	1B	2r
4C/	.	.	.	.	2d/
4BB/	.	.	.	.	.
2C/	.	.	.	1A	2e/
2D\	.	.	.	.	2f/
=151	=151	=151	=151	=151	=151
2E\	2r	0r	0r	1G	1g
2.E\	1G	.	.	.	.
.	.	.	.	1r	1e
4D\	.	.	.	.	.
2C/	4F\	.	.	.	.
.	4E\	.	.	.	.
=152.	=152.	=152.	=152.	=152.	=152.
1BB	2F\	0r	0r	2r	1d
.	2G\	.	.	2B/	.
1AA	2A\	.	.	4c/	1c
.	.	.	.	4d/	.
.	[2A\	.	.	4e/	.
.	.	.	.	4f/	.
=153	=153	=153	=153	=153	=153
0r	4A\]	0r	0r	2e/	1r
.	4G\	.	.	.	.
.	2F\	.	.	1d	.
.	1E	.	.	.	2r
.	.	.	.	2c#i/	2e/
=154.	=154.	=154.	=154.	=154.	=154.
1D	1D	0r	0r	0d	4f/
.	.	.	.	.	4g/
.	.	.	.	.	4a/
.	.	.	.	.	4b-i\
2F\	1r	.	.	.	2a/
2G\	.	.	.	.	[2g/
=155	=155	=155	=155	=155	=155
1A	1r	0r	0r	0r	2g/]
.	.	.	.	.	2f#i/
2G\	1G	.	.	.	[1g
[2G\	.	.	.	.	.
=156.	=156.	=156.	=156.	=156.	=156.
2G\]	2B\	0r	0r	0r	1g]
4F\	2c\	.	.	.	.
4E\	.	.	.	.	.
1F	1d	.	.	.	1r
=157	=157	=157	=157	=157	=157
4E\	2c\	0r	0r	0r	0r
4C/	.	.	.	.	.
4E\	1c	.	.	.	.
4F\	.	.	.	.	.
2G\	.	.	.	.	.
[2A\	4B-i\	.	.	.	.
.	4A\	.	.	.	.
=158.	=158.	=158.	=158.	=158.	=158.
2A\]	1B-i	0r	0r	1r	0r
2G\	.	.	.	.	.
2A\	4A\	.	.	1a	.
.	4F\	.	.	.	.
2A\	4A\	.	.	.	.
.	4B-i\	.	.	.	.
=159	=159	=159	=159	=159	=159
2A\	2c\	0r	0r	2a/	0r
4G\	1d	.	.	2a/	.
4F\	.	.	.	.	.
1E	.	.	.	1g	.
.	2c\	.	.	.	.
=160.	=160.	=160.	=160.	=160.	=160.
0D	2d\	0r	0r	1.f	1dd
.	2d\	.	.	.	.
.	2d\	.	.	.	2dd\
.	4c\	.	.	2d/	2dd\
.	4B\	.	.	.	.
=161	=161	=161	=161	=161	=161
0r	1A	0r	0r	2e/	1cc
.	.	.	.	2f/	.
.	1G	.	.	2.g/	[1b
.	.	.	.	4f/	.
=162.	=162.	=162.	=162.	=162.	=162.
0r	0r	0r	0r	2d/	2b\]
.	.	.	.	2e/	2g/
.	.	.	.	4d/	2a/
.	.	.	.	4c/	.
.	.	.	.	2d/	2b\
=163	=163	=163	=163	=163	=163
0r	0r	0r	0r	2e/	2.cc\
.	.	.	.	4d/	.
.	.	.	.	4c/	4b\
.	.	.	.	4d/	2g/
.	.	.	.	4c/	.
.	.	.	.	4B/	2a/
.	.	.	.	4A/	.
=164.	=164.	=164.	=164.	=164.	=164.
1r	0r	0r	0r	1B	4g/
.	.	.	.	.	4f/
.	.	.	.	.	2g/
4AA/	.	.	.	1c	2a/
4BB/	.	.	.	.	.
4C/	.	.	.	.	4g/
4D\	.	.	.	.	4f/
=165	=165	=165	=165	=165	=165
2E\	0r	0r	0r	0r	4g/
.	.	.	.	.	4f/
1D	.	.	.	.	4e/
.	.	.	.	.	4d/
.	.	.	.	.	1e
2C/	.	.	.	.	.
=166.	=166.	=166.	=166.	=166.	=166.
2D\	4D\	0r	0r	0r	1f
.	4E\	.	.	.	.
2AA/	4F\	.	.	.	.
.	4G\	.	.	.	.
2C/	2A\	.	.	.	1r
2BB/	[2G\	.	.	.	.
=167	=167	=167	=167	=167	=167
1AA	2G\]	0r	0r	1r	0r
.	2F\	.	.	.	.
2r	2G\	.	.	4d/	.
.	.	.	.	4e/	.
2A\	2D\	.	.	4f/	.
.	.	.	.	4g/	.
=168.	=168.	=168.	=168.	=168.	=168.
2F\	2F\	0r	0r	2a/	0r
2G\	2E\	.	.	1g	.
1A	1D	.	.	.	.
.	.	.	.	2f#i/	.
=169	=169	=169	=169	=169	=169
[0G	2r	0r	0r	1.g	4g/
.	.	.	.	.	4a/
.	2d\	.	.	.	4b\
.	.	.	.	.	4cc\
.	2B\	.	.	.	2dd\
.	2c\	.	.	2g/	[2cc\
=170.	=170.	=170.	=170.	=170.	=170.
1G]	1d	0r	0r	1g	2cc\]
.	.	.	.	.	2b\
2.C/	[1c	.	.	2.e/	[1cc
4D\	.	.	.	4f/	.
=171	=171	=171	=171	=171	=171
2E\	0c]	0r	0r	2g/	2cc\]
2.F\	.	.	.	2.f/	2cc\
.	.	.	.	.	1cc
4G\	.	.	.	4e/	.
2A\	.	.	.	2c/	.
=172.	=172.	=172.	=172.	=172.	=172.
1D	2.F\	0r	0r	2d/	2.a/
.	.	.	.	2f/	.
.	4G\	.	.	.	4b\
1r	2A\	.	.	2e/	2cc\
.	[2B-i\	.	.	4d/	[2b-\
.	.	.	.	4c/	.
=173	=173	=173	=173	=173	=173
1D	4B-\]	0r	0r	1d	4b-\]
.	4c\	.	.	.	4a/
.	2d\	.	.	.	2f/
1E	1G	.	.	2c/	2g/
.	.	.	.	4g/	2b-i\
.	.	.	.	4f/	.
=174.	=174.	=174.	=174.	=174.	=174.
2C/	1r	0r	0r	4e/	2a/
.	.	.	.	4d/	.
2D\	.	.	.	1d	4g/
.	.	.	.	.	4f/
1E	1G	.	.	.	1g
.	.	.	.	2c#i/	.
=175	=175	=175	=175	=175	=175
0Dl	0Al	0r	0r	0dl	0fl
!!LO:TX:Y=40:rj:t=[Osanna ut supra]
=||	=||	=||	=||	=||	=||
*-	*-	*-	*-	*-	*-
!!!RDF**kern: l=long note in original notation
!!!RDF**kern: i=editorial accidental
!!!RDF**kern: V=start of tuplet marker
!!!RDF**kern: Z=end of tuplet marker
!!!ENC:	Chris Gage 01-02-2013
!!!END:	2013/07/19/
!!!EED:	Jesse Rodin
!!!EEV:	2013/07/19/
!!!ONB:	Translated from MusicXML and edited on 2013/07/19/ by Craig Sapp
!!muse2ps: T^@{OPR}^u^@{ONM}{. }@{OTL}^C^@{COM}^i2I150v100,100,100,100,100,130Q16
